Newaita/actions/32/games-solve.svg

<svg height="32" viewBox="0 0 32 32" width="32" xmlns="http://www.w3.org/2000/svg"><g fill="#424242"><path d="m26.652344 3.167969c-.253906-.011719-.496094.121093-.621094.34375l-10.96875 19.230469-9.78125-9.785157c-.269531-.265625-.703125-.265625-.96875 0l-.992188.992188c-.269531.269531-.269531.703125 0 .972656l11.742188 11.742187c.316406.320313.855469.246094 1.078125-.144531l12.320313-21.582031c.1875-.324219.078124-.738281-.242188-.929688l-1.238281-.746093c-.101563-.058594-.210938-.089844-.328125-.09375zm0 0"/><path d="m15.214844 16.125c-3.664063 0-6.613282 2.953125-6.613282 6.617188 0 3.664062 2.949219 6.613281 6.613282 6.613281 3.664062 0 6.617187-2.949219 6.617187-6.613281 0-3.664063-2.953125-6.617188-6.617187-6.617188zm0 1.324219c2.933594 0 5.292968 2.359375 5.292968 5.292969 0 2.929687-2.359374 5.292968-5.292968 5.292968s-5.292969-2.363281-5.292969-5.292968c0-2.933594 2.359375-5.292969 5.292969-5.292969zm0 0"/></g></svg>

<?xml version="1.0" encoding="UTF-8"?>
<svg xmlns="http://www.w3.org/2000/svg" xmlns:xlink="http://www.w3.org/1999/xlink" width="32px" height="32px" viewBox="0 0 32 32" version="1.1">
<g id="surface1">
<path style=" stroke:none;fill-rule:nonzero;fill:rgb(25.882354%,25.882354%,25.882354%);fill-opacity:1;" d="M 26.652344 3.167969 C 26.398438 3.15625 26.15625 3.289062 26.03125 3.511719 L 15.0625 22.742188 L 5.28125 12.957031 C 5.011719 12.691406 4.578125 12.691406 4.3125 12.957031 L 3.320312 13.949219 C 3.050781 14.21875 3.050781 14.652344 3.320312 14.921875 L 15.0625 26.664062 C 15.378906 26.984375 15.917969 26.910156 16.140625 26.519531 L 28.460938 4.9375 C 28.648438 4.613281 28.539062 4.199219 28.21875 4.007812 L 26.980469 3.261719 C 26.878906 3.203125 26.769531 3.171875 26.652344 3.167969 Z M 26.652344 3.167969 "/>
<path style=" stroke:none;fill-rule:nonzero;fill:rgb(25.882354%,25.882354%,25.882354%);fill-opacity:1;" d="M 15.214844 16.125 C 11.550781 16.125 8.601562 19.078125 8.601562 22.742188 C 8.601562 26.40625 11.550781 29.355469 15.214844 29.355469 C 18.878906 29.355469 21.832031 26.40625 21.832031 22.742188 C 21.832031 19.078125 18.878906 16.125 15.214844 16.125 Z M 15.214844 17.449219 C 18.148438 17.449219 20.507812 19.808594 20.507812 22.742188 C 20.507812 25.671875 18.148438 28.035156 15.214844 28.035156 C 12.28125 28.035156 9.921875 25.671875 9.921875 22.742188 C 9.921875 19.808594 12.28125 17.449219 15.214844 17.449219 Z M 15.214844 17.449219 "/>
</g>
</svg>
